app/img/sauat/profile/item3.svg

<svg width="32" height="32" viewBox="0 0 32 32" fill="none" xmlns="http://www.w3.org/2000/svg">
<path d="M29.3334 22.5595V26.5595C29.3349 26.9308 29.2588 27.2984 29.1101 27.6386C28.9613 27.9788 28.7431 28.2843 28.4695 28.5353C28.1959 28.7863 27.8728 28.9775 27.5211 29.0964C27.1693 29.2154 26.7966 29.2596 26.4267 29.2261C22.3239 28.7803 18.3827 27.3783 14.9201 25.1328C11.6985 23.0857 8.96719 20.3544 6.92007 17.1328C4.66671 13.6544 3.2644 9.69414 2.82674 5.57281C2.79342 5.2041 2.83724 4.83249 2.95541 4.48164C3.07357 4.1308 3.2635 3.8084 3.51309 3.53497C3.76269 3.26155 4.06648 3.04309 4.40513 2.89351C4.74378 2.74392 5.10986 2.66649 5.48007 2.66614H9.48007C10.1271 2.65978 10.7545 2.88892 11.2451 3.31086C11.7357 3.73279 12.0562 4.31874 12.1467 4.95948C12.3156 6.23957 12.6287 7.49645 13.0801 8.70615C13.2595 9.18338 13.2983 9.70203 13.1919 10.2007C13.0856 10.6993 12.8386 11.157 12.4801 11.5195L10.7867 13.2128C12.6848 16.5509 15.4487 19.3147 18.7867 21.2128L20.4801 19.5195C20.8426 19.161 21.3003 18.9139 21.7989 18.8076C22.2975 18.7013 22.8162 18.7401 23.2934 18.9195C24.5031 19.3709 25.76 19.684 27.0401 19.8528C27.6878 19.9442 28.2793 20.2704 28.7021 20.7695C29.125 21.2685 29.3496 21.9056 29.3334 22.5595Z" stroke="#25B072" stroke-width="2" stroke-linecap="round" stroke-linejoin="round"/>
</svg>

<svg width="32" height="32" fill="none" xmlns="http://www.w3.org/2000/svg"><path d="M29.333 22.56v4a2.668 2.668 0 0 1-2.906 2.666 26.387 26.387 0 0 1-11.507-4.093 26 26 0 0 1-8-8 26.387 26.387 0 0 1-4.093-11.56A2.667 2.667 0 0 1 5.48 2.666h4a2.667 2.667 0 0 1 2.667 2.293c.169 1.28.482 2.537.933 3.747a2.666 2.666 0 0 1-.6 2.814l-1.693 1.693a21.334 21.334 0 0 0 8 8l1.693-1.694a2.666 2.666 0 0 1 2.813-.6c1.21.452 2.467.765 3.747.934a2.666 2.666 0 0 1 2.293 2.706Z" stroke="#25B072" stroke-width="2" stroke-linecap="round" stroke-linejoin="round"/></svg>
